public/assets/icons/bag.svg

<svg width="20" height="20" viewBox="0 0 20 20" fill="none" xmlns="http://www.w3.org/2000/svg">
<path fill-rule="evenodd" clip-rule="evenodd" d="M14.1086 5.83342C14.1351 5.77435 14.1475 5.70999 14.1449 5.64535H14.1667C14.0735 3.42167 12.2374 1.66675 10.0041 1.66675C7.77083 1.66675 5.93477 3.42167 5.84157 5.64535C5.83059 5.70756 5.83059 5.7712 5.84157 5.83342H5.77643C4.70851 5.83342 3.56695 6.53839 3.23553 8.43348L2.58742 13.5957C2.05715 17.3859 4.00885 18.3334 6.55711 18.3334H13.4654C16.0063 18.3334 17.8991 16.9614 17.4277 13.5957L16.787 8.43348C16.3966 6.59145 15.2919 5.83342 14.2387 5.83342H14.1086ZM12.911 5.83342C12.8878 5.77337 12.8755 5.70969 12.8747 5.64535C12.8747 4.04744 11.5749 2.75207 9.97146 2.75207C8.36803 2.75207 7.0682 4.04744 7.0682 5.64535C7.07919 5.70756 7.07919 5.7712 7.0682 5.83342H12.911ZM7.58083 10.1239C7.17408 10.1239 6.84434 9.78451 6.84434 9.36586C6.84434 8.94721 7.17408 8.60782 7.58083 8.60782C7.98758 8.60782 8.31732 8.94721 8.31732 9.36586C8.31732 9.78451 7.98758 10.1239 7.58083 10.1239ZM11.6684 9.36586C11.6684 9.78451 11.9981 10.1239 12.4048 10.1239C12.8116 10.1239 13.1413 9.78451 13.1413 9.36586C13.1413 8.94721 12.8116 8.60782 12.4048 8.60782C11.9981 8.60782 11.6684 8.94721 11.6684 9.36586Z" fill="#7986AC"/>
</svg>

<?xml version="1.0"?>
<svg width="20" height="20" xmlns="http://www.w3.org/2000/svg" xmlns:svg="http://www.w3.org/2000/svg">
 <g class="layer">
  <title>Layer 1</title>
  <path clip-rule="evenodd" d="m14.11,5.83c0.03,-0.06 0.04,-0.12 0.03,-0.18l0.03,0c-0.1,-2.23 -1.93,-3.98 -4.17,-3.98c-2.23,0 -4.07,1.75 -4.16,3.98c-0.01,0.06 -0.01,0.12 0,0.18l-0.06,0c-1.07,0 -2.21,0.71 -2.54,2.6l-0.65,5.17c-0.53,3.79 1.42,4.73 3.97,4.73l6.91,0c2.54,0 4.43,-1.37 3.96,-4.73l-0.64,-5.17c-0.39,-1.84 -1.5,-2.6 -2.55,-2.6l-0.13,0zm-1.2,0c-0.02,-0.06 -0.03,-0.12 -0.04,-0.18c0,-1.6 -1.3,-2.9 -2.9,-2.9c-1.6,0 -2.9,1.3 -2.9,2.9c0.01,0.06 0.01,0.12 0,0.18l5.84,0zm-5.33,4.29c-0.41,0 -0.74,-0.34 -0.74,-0.75c0,-0.42 0.33,-0.76 0.74,-0.76c0.41,0 0.74,0.34 0.74,0.76c0,0.41 -0.33,0.75 -0.74,0.75zm4.09,-0.75c0,0.41 0.33,0.75 0.73,0.75c0.41,0 0.74,-0.34 0.74,-0.75c0,-0.42 -0.33,-0.76 -0.74,-0.76c-0.4,0 -0.73,0.34 -0.73,0.76z" fill="#000000" fill-rule="evenodd" id="svg_1"/>
 </g>
</svg>
